raw/symbols/wbtc.svg

<svg width="42" height="42" viewBox="0 0 42 42" fill="none" xmlns="http://www.w3.org/2000/svg">
<circle cx="21" cy="21" r="21" fill="#E39652"/>
<path d="M33.0156 9.94165L31.9692 10.988C34.466 13.7183 35.8505 17.2842 35.8505 20.984C35.8505 24.6838 34.466 28.2496 31.9692 30.98L33.0156 32.0263C35.7922 29.0145 37.3338 25.0682 37.3338 20.9718C37.3338 16.8754 35.7922 12.929 33.0156 9.91724V9.94165Z" fill="#F3F3F3"/>
<path d="M11.0107 10.0318C13.741 7.53503 17.3069 6.15046 21.0067 6.15046C24.7065 6.15046 28.2723 7.53503 31.0027 10.0318L32.049 8.98542C29.0372 6.20879 25.0909 4.66724 20.9945 4.66724C16.8981 4.66724 12.9517 6.20879 9.93994 8.98542L11.0107 10.0318Z" fill="#F3F3F3"/>
<path d="M10.031 30.9908C7.53725 28.261 6.15451 24.6973 6.15451 21C6.15451 17.3026 7.53725 13.739 10.031 11.0092L8.98469 9.96289C6.20806 12.9747 4.6665 16.921 4.6665 21.0174C4.6665 25.1138 6.20806 29.0602 8.98469 32.072L10.031 30.9908Z" fill="#F3F3F3"/>
<path d="M30.9885 31.9563C28.2582 34.453 24.6923 35.8376 20.9925 35.8376C17.2927 35.8376 13.7269 34.453 10.9965 31.9563L9.9502 33.0026C12.962 35.7793 16.9083 37.3208 21.0047 37.3208C25.1011 37.3208 29.0475 35.7793 32.0593 33.0026L30.9885 31.9563Z" fill="#F3F3F3"/>
<path d="M27.6017 17.5073C27.3925 15.3239 25.5091 14.5915 23.1269 14.3683V11.3618H21.2854V14.3125C20.8005 14.3125 20.3053 14.3125 19.8135 14.3125V11.3618H17.9859V14.3892H14.2505V16.3598C14.2505 16.3598 15.6107 16.3354 15.5898 16.3598C15.8351 16.3328 16.0812 16.4021 16.2764 16.5531C16.4716 16.704 16.6006 16.9248 16.6361 17.169V25.456C16.6309 25.5421 16.6084 25.6263 16.5701 25.7035C16.5318 25.7808 16.4783 25.8496 16.4129 25.9059C16.3487 25.9632 16.2737 26.007 16.1921 26.0346C16.1106 26.0621 16.0244 26.0729 15.9386 26.0663C15.963 26.0873 14.5993 26.0663 14.5993 26.0663L14.2505 28.2671H17.951V31.3433H19.7926V28.3125H21.2644V31.3294H23.1095V28.288C26.2206 28.0997 28.39 27.3324 28.662 24.4201C28.8817 22.0763 27.7796 21.03 26.0183 20.6079C27.089 20.0813 27.7517 19.1047 27.6017 17.5073ZM25.0208 24.0574C25.0208 26.3453 21.1005 26.0838 19.8519 26.0838V22.024C21.1005 22.0275 25.0208 21.6682 25.0208 24.0574ZM24.1663 18.3374C24.1663 20.4301 20.8947 20.1755 19.8554 20.1755V16.4854C20.8947 16.4854 24.1663 16.1575 24.1663 18.3374Z" fill="#F3F3F3"/>
</svg>

<svg xmlns="http://www.w3.org/2000/svg" width="42" height="42" fill="none"><circle cx="21" cy="21" r="21" fill="#E39652"/><path fill="#F3F3F3" d="m33.016 9.942-1.047 1.046a14.812 14.812 0 0 1 0 19.992l1.047 1.046a16.309 16.309 0 0 0 0-22.109v.025ZM11.01 10.032a14.812 14.812 0 0 1 19.993 0l1.046-1.047a16.309 16.309 0 0 0-22.11 0l1.072 1.047ZM10.031 30.99a14.813 14.813 0 0 1 0-19.98L8.985 9.962a16.309 16.309 0 0 0 0 22.109l1.046-1.081ZM30.988 31.956a14.813 14.813 0 0 1-19.991 0L9.95 33.003a16.309 16.309 0 0 0 22.11 0l-1.072-1.047ZM27.602 17.507c-.21-2.183-2.093-2.916-4.475-3.139v-3.006h-1.842v2.95h-1.471v-2.95h-1.828v3.027H14.25v1.97s1.36-.024 1.34 0a.952.952 0 0 1 1.046.81v8.287a.645.645 0 0 1-.223.45.639.639 0 0 1-.474.16c.024.021-1.34 0-1.34 0l-.348 2.201h3.7v3.076h1.842v-3.03h1.471v3.016h1.846v-3.041c3.11-.188 5.28-.956 5.552-3.868.22-2.344-.882-3.39-2.644-3.812 1.071-.527 1.734-1.503 1.584-3.1Zm-2.581 6.55c0 2.288-3.92 2.027-5.17 2.027v-4.06c1.25.003 5.17-.356 5.17 2.033Zm-.855-5.72c0 2.093-3.271 1.838-4.31 1.838v-3.69c1.039 0 4.31-.328 4.31 1.852Z"/></svg>
